X:1
T:Jimmie Raeburn
M:3/4
L:1/8
K:F
C-F| A3 A G/2 F/2- F3| D2 C4| F2
M:3/4
| G3/2 G/2 G3 A| G4 C2| F3/2 G/2A/2 B/2 c-
M:3/4
| c2 F2A-c| c3/2 c/2 c3 d| c4 z F| B/2 c3/2 d3 B| c2 A2 A/2- c3/2|\
